icon-themes/breeze_svg/cmd/sc_thesaurus.svg

<svg viewBox="0 0 16 16" xmlns="http://www.w3.org/2000/svg"><path d="m4.46875 2-1.9375 5.84375-.0625.15625h1.0625l.34375-1h2.25l.34375 1h1.0625l-.0625-.15625-1.9375-5.84375zm.53125 1.5625.8125 2.4375h-1.625zm4 4.4375v2 1 2 1h2.769531c1.022771 0 1.845703-.892028 1.845703-2 0-.810973-.458213-1.498026-1.095703-1.8125.0978-.2057995.171875-.4391756.171875-.6875 0-.8309979-.615732-1.5-1.382812-1.5h-1.3847659zm.9238281 1h1.3847659c.255699 0 .460937.2230257.460937.5s-.205238.5-.460937.5h-1.3847659zm0 2h1.3847659.460937c.511391 0 .921875.445976.921875 1 0 .553949-.410484 1-.921875 1h-1.8457029z" fill="#4d4d4d"/><path d="m8 3v1c1.4731927 0 2.71992.8137633 3.40625 2h-1.40625v1h1.84375.15625.90625c-.466231-2.2784161-2.490004-4-4.90625-4zm-4.90625 6c.4662313 2.278416 2.4900046 4 4.90625 4v-1c-1.4731925 0-2.7199196-.813763-3.40625-2h1.40625v-1h-1.84375z" fill="#1d99f3"/></svg>

<svg xmlns="http://www.w3.org/2000/svg" viewBox="0 0 16 16">
 <path 
     style="fill:#4d4d4d" 
     d="M 4.46875 2 L 2.53125 7.84375 L 2.46875 8 L 3.53125 8 L 3.875 7 L 6.125 7 L 6.46875 8 L 7.53125 8 L 7.46875 7.84375 L 5.53125 2 L 4.46875 2 z M 5 3.5625 L 5.8125 6 L 4.1875 6 L 5 3.5625 z M 9 8 L 9 10 L 9 11 L 9 13 L 9 14 L 11.769531 14 C 12.792302 14 13.615234 13.107972 13.615234 12 C 13.615234 11.189027 13.157021 10.501974 12.519531 10.1875 C 12.617331 9.9817005 12.691406 9.7483244 12.691406 9.5 C 12.691406 8.6690021 12.075674 8 11.308594 8 L 9.9238281 8 L 9 8 z M 9.9238281 9 L 11.308594 9 C 11.564293 9 11.769531 9.2230257 11.769531 9.5 C 11.769531 9.7769743 11.564293 10 11.308594 10 L 9.9238281 10 L 9.9238281 9 z M 9.9238281 11 L 11.308594 11 L 11.769531 11 C 12.280922 11 12.691406 11.445976 12.691406 12 C 12.691406 12.553949 12.280922 13 11.769531 13 L 9.9238281 13 L 9.9238281 11 z "
     />
 <path 
     style="fill:#1d99f3" 
     d="M 8 3 L 8 4 C 9.4731927 4 10.71992 4.8137633 11.40625 6 L 10 6 L 10 7 L 11.84375 7 L 12 7 L 12.90625 7 C 12.440019 4.7215839 10.416246 3 8 3 z M 3.09375 9 C 3.5599813 11.278416 5.5837546 13 8 13 L 8 12 C 6.5268075 12 5.2800804 11.186237 4.59375 10 L 6 10 L 6 9 L 4.15625 9 L 3.09375 9 z "
     />
 </svg>
